resources/mmv/ui/img/pasting.svg

<?xml version="1.0" encoding="UTF-8"?>
<svg xmlns="http://www.w3.org/2000/svg" width="18.244141" height="22.457031" viewBox="0 0 18.244141 22.457031">
	<g fill="#72777d" fill-rule="evenodd">
		<path d="M2.7734312 1.93554556c-1.5639563.3014341-2.77343748 1.6763366-2.77343748 3.32031248V19.0546866c0 1.86018 1.5402096 3.402343 3.4003906 3.402343h11.44335935c1.860195 0 3.400391-1.542163 3.400391-3.402343V5.25585804c0-1.6439759-1.209473-3.0188784-2.773438-3.32031248.12881.3312627.207031.6862956.207031 1.0585937v.1757813c0 .5915414-.183965 1.145064-.490234 1.6132812.148898.1027802.253906.2581495.253906.47265628V19.0546866c0 .355806-.241835.597656-.597656.597656H3.4003843c-.355807 0-.5976562-.24185-.5976562-.597656V5.25585804c0-.2145068.1050101-.3698763.2539062-.4726563-.3065979-.4681683-.4902344-1.0208799-.4902344-1.6132812v-.1757813c0-.3721563.0785133-.7277074.2070313-1.05859368z"/>
		<path d="M8.09569948.00000245c-.831 0-1.5.669-1.5 1.5v.00391h-1.039063c-.824906 0-1.490234.6653284-1.490234 1.4902343v.1757813c0 .8249059.665328 1.48828118 1.490234 1.48828118H12.68944947c.824906 0 1.488281-.6633753 1.488281-1.4882812v-.1757813c0-.8249059-.663375-1.4902343-1.488281-1.4902343h-1.039063v-.00391c0-.83099998-.669-1.49999998-1.5-1.49999998z"/>
	</g>
</svg>

<?xml version="1.0" encoding="UTF-8" standalone="no"?>
<!-- Created with Inkscape (http://www.inkscape.org/) -->

<svg
   xmlns:dc="http://purl.org/dc/elements/1.1/"
   xmlns:cc="http://creativecommons.org/ns#"
   xmlns:rdf="http://www.w3.org/1999/02/22-rdf-syntax-ns#"
   xmlns:svg="http://www.w3.org/2000/svg"
   xmlns="http://www.w3.org/2000/svg"
   xmlns:sodipodi="http://sodipodi.sourceforge.net/DTD/sodipodi-0.dtd"
   xmlns:inkscape="http://www.inkscape.org/namespaces/inkscape"
   version="1.1"
   width="18.244141"
   height="22.457031"
   viewBox="0 0 18.244141 22.457031"
   id="Layer_1"
   xml:space="preserve"
   sodipodi:docname="pasting.svg"
   inkscape:version="0.92pre3 r"><sodipodi:namedview
     pagecolor="#ffffff"
     bordercolor="#666666"
     borderopacity="1"
     objecttolerance="10"
     gridtolerance="10"
     guidetolerance="10"
     inkscape:pageopacity="0"
     inkscape:pageshadow="2"
     inkscape:window-width="1920"
     inkscape:window-height="1012"
     id="namedview9"
     showgrid="false"
     showguides="false"
     inkscape:guide-bbox="true"
     inkscape:snap-bbox="true"
     inkscape:bbox-nodes="true"
     inkscape:object-paths="false"
     inkscape:snap-center="true"
     inkscape:zoom="11.313709"
     inkscape:cx="22.688172"
     inkscape:cy="23.452284"
     inkscape:window-x="0"
     inkscape:window-y="32"
     inkscape:window-maximized="1"
     inkscape:current-layer="Layer_1"
     inkscape:snap-smooth-nodes="true"
     fit-margin-top="0"
     fit-margin-left="0"
     fit-margin-right="0"
     fit-margin-bottom="0" /><metadata
     id="metadata1113"><rdf:RDF><cc:Work
         rdf:about=""><dc:format>image/svg+xml</dc:format><dc:type
           rdf:resource="http://purl.org/dc/dcmitype/StillImage" /><dc:title></dc:title></cc:Work></rdf:RDF></metadata><defs
     id="defs1111" /><g
     transform="matrix(1.4181234,0,0,1.4181234,-793.35706,-221.27829)"
     id="g317"><path
       style="color:#000000;font-style:normal;font-variant:normal;font-weight:normal;font-stretch:normal;font-size:medium;line-height:normal;font-family:sans-serif;font-variant-ligatures:normal;font-variant-position:normal;font-variant-caps:normal;font-variant-numeric:normal;font-variant-alternates:normal;font-feature-settings:normal;text-indent:0;text-align:start;text-decoration:none;text-decoration-line:none;text-decoration-style:solid;text-decoration-color:#000000;letter-spacing:normal;word-spacing:normal;text-transform:none;writing-mode:lr-tb;direction:ltr;text-orientation:mixed;dominant-baseline:auto;baseline-shift:baseline;text-anchor:start;white-space:normal;shape-padding:0;clip-rule:nonzero;display:inline;overflow:visible;visibility:visible;opacity:1;isolation:auto;mix-blend-mode:normal;color-interpolation:sRGB;color-interpolation-filters:linearRGB;solid-color:#000000;solid-opacity:1;vector-effect:none;fill:#bbbbbb;fill-opacity:1;fill-rule:evenodd;stroke:none;stroke-width:2.80299997;stroke-linecap:butt;stroke-linejoin:miter;stroke-miterlimit:4;stroke-dasharray:none;stroke-dashoffset:0;stroke-opacity:1;color-rendering:auto;image-rendering:auto;shape-rendering:auto;text-rendering:auto;enable-background:accumulate"
       d="M 2.7734375 1.9355469 C 1.2094812 2.236981 0 3.6118835 0 5.2558594 L 0 19.054688 C 0 20.914868 1.5402096 22.457031 3.4003906 22.457031 L 14.84375 22.457031 C 16.703945 22.457031 18.244141 20.914868 18.244141 19.054688 L 18.244141 5.2558594 C 18.244141 3.6118835 17.034668 2.236981 15.470703 1.9355469 C 15.599513 2.2668096 15.677734 2.6218425 15.677734 2.9941406 L 15.677734 3.1699219 C 15.677734 3.7614633 15.493769 4.3149859 15.1875 4.7832031 C 15.336398 4.8859833 15.441406 5.0413526 15.441406 5.2558594 L 15.441406 19.054688 C 15.441406 19.410494 15.199571 19.652344 14.84375 19.652344 L 3.4003906 19.652344 C 3.0445836 19.652344 2.8027344 19.410494 2.8027344 19.054688 L 2.8027344 5.2558594 C 2.8027344 5.0413526 2.9077445 4.8859831 3.0566406 4.7832031 C 2.7500427 4.3150348 2.5664062 3.7623232 2.5664062 3.1699219 L 2.5664062 2.9941406 C 2.5664062 2.6219843 2.6449195 2.2664332 2.7734375 1.9355469 z "
       transform="matrix(0.70515725,0,0,0.70515725,559.44148,156.03599)"
       id="rect3680" /><path
       style="fill:#bbbbbb;fill-opacity:1;fill-rule:evenodd;stroke:none;stroke-width:2.80299997;stroke-linecap:butt;stroke-linejoin:miter;stroke-miterlimit:4;stroke-dasharray:none;stroke-opacity:1"
       d="m 29.324219,-6.5390625 c -0.831,0 -1.5,0.669 -1.5,1.5 v 0.00391 h -1.039063 c -0.824906,0 -1.490234,0.6653284 -1.490234,1.4902343 v 0.1757813 c 0,0.8249059 0.665328,1.4882812 1.490234,1.4882812 h 2.539063 2.054687 2.539063 c 0.824906,0 1.488281,-0.6633753 1.488281,-1.4882812 v -0.1757813 c 0,-0.8249059 -0.663375,-1.4902343 -1.488281,-1.4902343 h -1.039063 v -0.00391 c 0,-0.831 -0.669,-1.5 -1.5,-1.5 z"
       transform="matrix(0.70515725,0,0,0.70515725,544.47204,160.64706)"
       id="rect4501"
       inkscape:connector-curvature="0" /></g></svg>
